!!! OTL: Literature83
!!! Chapter: 5
!!! Section: II
!!! Page: 363
!!! Mode: 
!!! Encoder: ESM
**kern
*staff1
*I"Piano
=1-
*clefG2
*k[f#c#g#]
*f#:
*M4/4
8b\L
8b\J
[4ff#\
8ff#\L]
16ee\L
16ff#\JJ
8dd\L
16cc#\L
16b\JJ
=2
16cc#\LL
16dd\J
[8ee\J
4ee\_
8ee\L]
8ff#\J
8cc#\L
16b\L
16a\JJ
=3
8f#/L
8f#/J
[4b\
8b\L]
8cc#\J
8b/L
16a/L
16g#/JJ
=4
16a/LL
16g#/J
[8f#/J
4f#/]
8f#/L
8g#/
8a/
8cc#/J
=5
8b/L
8b/J
[4ff#\
8ff#\L]
16ee\L
16ff#\JJ
8dd\L
16cc#\L
16b\JJ
=6
!!linebreak:original
16cc#\LL
16dd\J
[8ee\J
4ee\_
8ee\L]
8ff#\J
8cc#\L
16b\L
16a\JJ
=7
8f#/L
8f#/J
[4b\
8b\L]
8cc#\J
8b/L
16a/L
16g#/JJ
=8
1a
==
*-
